icons/question-mark.svg

<svg width="24" height="24" fill="none" xmlns="http://www.w3.org/2000/svg"><g clip-path="url(#a)"><path d="M12 19a1.5 1.5 0 1 1-.001 3.001A1.5 1.5 0 0 1 12 19Zm0-17a6 6 0 0 1 6 6c0 2.165-.753 3.29-2.674 4.923C13.399 14.56 13 15.297 13 17h-2c0-2.474.787-3.695 3.031-5.601C15.548 10.11 16 9.434 16 8c0-2.21-1.79-4-4-4S8 5.79 8 8v1H6V8a6 6 0 0 1 6-6Z" /></g><defs><clipPath id="a"><path fill="#fff" d="M0 0h24v24H0z"/></clipPath></defs></svg>

<svg xmlns="http://www.w3.org/2000/svg" width="24" height="24" fill="none"><g clip-path="url(#a)"><g><path fill="#121212" d="M12 19C12.828 19 13.5 19.672 13.5 20.5C13.5 21.328 12.828 22 12 22C11.172 22 10.5 21.328 10.5 20.5C10.5 19.672 11.172 19 12 19ZM12 2C15.314 2 18 4.686 18 8C18 10.165 17.247 11.29 15.326 12.923C13.399 14.56 13 15.297 13 17H11C11 14.526 11.787 13.305 14.031 11.399C15.548 10.11 16 9.434 16 8C16 5.79 14.21 4 12 4C9.79 4 8 5.79 8 8V9H6V8C6 4.686 8.686 2 12 2Z"/></g></g><defs><clipPath id="a"><rect width="24" height="24" fill="white"/></clipPath></defs></svg>
